src/domains/exchange/images/no-exchanges-banner.svg

<svg xmlns="http://www.w3.org/2000/svg" width="513" height="243"><path stroke="#DBDEE5" stroke-width="2" fill="none" d="M192.957 177.439C207.998 195.503 230.656 207 256 207c45.287 0 82-36.713 82-82v-1c0-34.242 26.758-62 61-62 34.242 0 62 27.758 62 62 0 34.242-27.758 62-62 62"/><path stroke="#DBDEE5" stroke-width="2" fill="none" d="M190 170a5 5 0 11-.001 10.001A5 5 0 01190 170z"/><path fill-rule="evenodd" fill="#DCDFE6" d="M396.847 185.994l3.326 3.316c.419.555 1.169.659 1.676.231.507-.428.579-1.225.161-1.78l-2.568-2.311 2.282-2.379c.507-.428.579-1.226.161-1.781-.419-.555-1.169-.658-1.676-.231l-3.203 3.154a1.242 1.242 0 00-.426.842c-.029.323.058.661.267.939z"/><path stroke="#DBDEE5" stroke-width="2" fill="none" d="M398 83c23.196 0 42 18.804 42 42s-18.804 42-42 42-42-18.804-42-42 18.804-42 42-42zM319.043 72.561C304.002 54.497 281.344 43 256 43c-45.287 0-82 36.713-82 82v1c0 34.242-26.758 62-61 62-34.242 0-62-27.758-62-62 0-34.242 27.758-62 62-62"/><path stroke="#DBDEE5" stroke-width="2" fill="none" d="M322 70a5 5 0 11-.001 10.001A5 5 0 01322 70z"/><path fill-rule="evenodd" fill="#DCDFE6" d="M115.153 64.006l-3.326-3.316c-.419-.555-1.169-.659-1.676-.231-.507.427-.579 1.225-.161 1.78l2.568 2.311-2.282 2.379c-.507.428-.579 1.226-.161 1.781.419.555 1.169.658 1.676.231l3.203-3.154c.253-.214.397-.521.426-.842a1.357 1.357 0 00-.267-.939z"/><path stroke="#DBDEE5" stroke-width="2" fill="none" d="M114 83c23.196 0 42 18.804 42 42s-18.804 42-42 42-42-18.804-42-42 18.804-42 42-42z"/><path fill-rule="evenodd" fill="#DCDFE6" d="M404.993 129.596c0-7.18-9.662-5.673-9.662-9.307 0-1.212.957-2.098 2.582-2.098 1.451 0 2.467.532 3.888 1.654.233.178.436.148.61-.088l1.596-1.98c.203-.236.203-.414 0-.62-1.248-1.271-2.757-2.216-4.527-2.571v-2.157c0-.266-.174-.443-.435-.443h-2.118c-.261 0-.435.177-.435.443v2.098c-2.786.502-5.02 2.541-5.02 5.673 0 6.766 9.633 5.643 9.633 9.307 0 1.478-1.364 2.423-3.076 2.423-1.77 0-3.133-.768-4.526-2.009-.232-.207-.464-.177-.638.03l-1.741 1.92c-.174.207-.174.414-.029.621 1.102 1.359 3.075 2.688 5.397 3.102v1.95c0 .266.174.443.435.443h2.118c.261 0 .435-.177.435-.443v-1.979c2.96-.532 5.513-2.63 5.513-5.969z"/><path fill-rule="evenodd" fill="#DBDEE5" d="M122.998 128.52c0 3.586-2.272 5.487-7.063 5.487H115v2.493a1.5 1.5 0 01-3 0v-2.493h-2.581c-.007 0-.011-.007-.019-.007h-1.9a1.5 1.5 0 010-3h1.509v-13H107.5a1.5 1.5 0 010-3h1.899c.008 0 .012-.008.02-.008H112V112.5a1.5 1.5 0 013 0v2.492h.935c3.805 0 5.694 2.228 5.694 4.808 0 1.983-1.04 3.477-2.436 4.021 2.025.516 3.805 2.227 3.805 4.699zm-7.351-10.522h-3.638v3.992h3.638c1.434 0 2.357-.67 2.357-2.112 0-1.365-.948-1.88-2.357-1.88zm.901 7.999h-4.538v5.005h4.538c2.152 0 3.449-.791 3.449-2.529 0-1.66-1.297-2.476-3.449-2.476z"/><path fill-rule="evenodd" fill="#EEF3F5" d="M296.105 170.331c11.206-10.524 27.343-29.872 19.053-61.343 3.739 7.515 5.842 15.989 5.842 24.954 0 30.96-25.078 56.058-56.014 56.058-9.383 0-18.227-2.309-25.996-6.389 16.219 8.519 45.909-2.758 57.115-13.28z"/><path stroke="#212225" stroke-width="2" fill="none" d="M256 63c34.242 0 62 27.758 62 62 0 34.242-27.758 62-62 62-34.242 0-62-27.758-62-62 0-34.242 27.758-62 62-62z"/><path stroke="#212225" stroke-width="2" fill="none" d="M221.22 160.114a49.373 49.373 0 01-14.221-34.763c0-27.256 21.94-49.352 49.004-49.352 27.065 0 49.004 22.096 49.004 49.352a49.38 49.38 0 01-15.112 35.646"/><path fill-rule="evenodd" fill="#C9292C" d="M264.519 141.993l-2.484-7.983h-3.473V142h-5.124v-7.99h-3.479l-2.484 7.983h-6.472l11.553-35.009h6.898l11.537 35.009h-6.472zm-8.383-27.008h-.262l-4.118 13.247h8.498l-4.118-13.247z"/><path fill-rule="evenodd" fill="#E4E7EC" d="M497 182v38h10v2h-10v9h-2v-9h-38v9h-2v-9h-38v10h-2v-10h-8v-2h8v-8h2v8h38v-19h2v19h38v-38h-13v-2h13v-29h2v29h15v2h-15zm-28 4h-2v-4h-4v-2h4v-4h2v4h4v2h-4v4zM414 50v-4h-4v-2h4v-4h2v4h4v2h-4v4h-2zm43-10h-2V22h-38v8h-2v-8h-38v8h-2v-8h-3v-2h3V10h2v10h38V0h2v20h38V10h2v10h9v2h-9v18zM337 242h-2v-20h-21v-2h21v-8h2v8h7v2h-7v20zM214 26h-2v-4h-4v-2h4v-4h2v4h4v2h-4v4zm-37 4h-2v-8h-7v-2h7V0h2v20h21v2h-21v8zm-21 196h-2v-4h-4v-2h4v-4h2v4h4v2h-4v4zm-19 6h-2v-10H97v20h-2v-20H57v10h-2v-10h-9v-2h9v-18h2v18h38v-8h2v8h38v-8h2v8h3v2h-3v10zM55 61v-4h-4v-2h4v-4h2v4h4v2h-4v4h-2zm42-31h-2v-8H57v19h-2V22H17v38h13v2H17v29h-2V62H0v-2h15V22H5v-2h10v-9h2v9h38v-9h2v9h38V10h2v10h8v2h-8v8z"/></svg>

<svg 
 xmlns="http://www.w3.org/2000/svg"
 xmlns:xlink="http://www.w3.org/1999/xlink"
 width="513px" height="243px">
<path fill-rule="evenodd"  stroke="rgb(219, 222, 229)" stroke-width="2px" stroke-linecap="butt" stroke-linejoin="miter" fill="none"
 d="M192.957,177.439 C207.998,195.503 230.656,207.000 256.000,207.000 C301.287,207.000 338.000,170.287 338.000,125.000 C338.000,124.651 338.000,124.139 338.000,124.000 C338.000,89.758 364.758,62.000 399.000,62.000 C433.242,62.000 461.000,89.758 461.000,124.000 C461.000,158.242 433.242,186.000 399.000,186.000 "/>
<path fill-rule="evenodd"  stroke="rgb(219, 222, 229)" stroke-width="2px" stroke-linecap="butt" stroke-linejoin="miter" fill="none"
 d="M190.000,170.000 C192.761,170.000 195.000,172.239 195.000,175.000 C195.000,177.761 192.761,180.000 190.000,180.000 C187.239,180.000 185.000,177.761 185.000,175.000 C185.000,172.239 187.239,170.000 190.000,170.000 Z"/>
<path fill-rule="evenodd"  fill="rgb(220, 223, 230)"
 d="M396.847,185.994 L400.173,189.310 C400.592,189.865 401.342,189.969 401.849,189.541 C402.356,189.113 402.428,188.316 402.010,187.761 L399.442,185.450 L401.724,183.071 C402.231,182.643 402.303,181.845 401.885,181.290 C401.466,180.735 400.716,180.632 400.209,181.059 L397.006,184.213 C396.753,184.427 396.609,184.734 396.580,185.055 C396.551,185.378 396.638,185.716 396.847,185.994 Z"/>
<path fill-rule="evenodd"  stroke="rgb(219, 222, 229)" stroke-width="2px" stroke-linecap="butt" stroke-linejoin="miter" fill="none"
 d="M398.000,83.000 C421.196,83.000 440.000,101.804 440.000,125.000 C440.000,148.196 421.196,167.000 398.000,167.000 C374.804,167.000 356.000,148.196 356.000,125.000 C356.000,101.804 374.804,83.000 398.000,83.000 Z"/>
<path fill-rule="evenodd"  stroke="rgb(219, 222, 229)" stroke-width="2px" stroke-linecap="butt" stroke-linejoin="miter" fill="none"
 d="M319.043,72.561 C304.002,54.497 281.344,43.000 256.000,43.000 C210.713,43.000 174.000,79.713 174.000,125.000 C174.000,125.349 174.000,125.861 174.000,126.000 C174.000,160.242 147.242,188.000 113.000,188.000 C78.758,188.000 51.000,160.242 51.000,126.000 C51.000,91.758 78.758,64.000 113.000,64.000 "/>
<path fill-rule="evenodd"  stroke="rgb(219, 222, 229)" stroke-width="2px" stroke-linecap="butt" stroke-linejoin="miter" fill="none"
 d="M322.000,70.000 C324.761,70.000 327.000,72.239 327.000,75.000 C327.000,77.761 324.761,80.000 322.000,80.000 C319.239,80.000 317.000,77.761 317.000,75.000 C317.000,72.239 319.239,70.000 322.000,70.000 Z"/>
<path fill-rule="evenodd"  fill="rgb(220, 223, 230)"
 d="M115.153,64.006 L111.827,60.690 C111.408,60.135 110.658,60.031 110.151,60.459 C109.644,60.886 109.572,61.684 109.990,62.239 L112.558,64.550 L110.276,66.929 C109.769,67.357 109.697,68.155 110.115,68.710 C110.534,69.265 111.284,69.368 111.791,68.941 L114.994,65.787 C115.247,65.573 115.391,65.266 115.420,64.945 C115.450,64.622 115.362,64.284 115.153,64.006 Z"/>
<path fill-rule="evenodd"  stroke="rgb(219, 222, 229)" stroke-width="2px" stroke-linecap="butt" stroke-linejoin="miter" fill="none"
 d="M114.000,83.000 C137.196,83.000 156.000,101.804 156.000,125.000 C156.000,148.196 137.196,167.000 114.000,167.000 C90.804,167.000 72.000,148.196 72.000,125.000 C72.000,101.804 90.804,83.000 114.000,83.000 Z"/>
<path fill-rule="evenodd"  fill="rgb(220, 223, 230)"
 d="M404.993,129.596 C404.993,122.416 395.331,123.923 395.331,120.289 C395.331,119.077 396.288,118.191 397.913,118.191 C399.364,118.191 400.380,118.723 401.801,119.845 C402.034,120.023 402.237,119.993 402.411,119.757 L404.007,117.777 C404.210,117.541 404.210,117.363 404.007,117.157 C402.759,115.886 401.250,114.941 399.480,114.586 L399.480,112.429 C399.480,112.163 399.306,111.986 399.045,111.986 L396.927,111.986 C396.666,111.986 396.492,112.163 396.492,112.429 L396.492,114.527 C393.706,115.029 391.472,117.068 391.472,120.200 C391.472,126.966 401.105,125.843 401.105,129.507 C401.105,130.985 399.741,131.930 398.029,131.930 C396.259,131.930 394.896,131.162 393.503,129.921 C393.271,129.714 393.039,129.744 392.865,129.951 L391.124,131.871 C390.950,132.078 390.950,132.285 391.095,132.492 C392.197,133.851 394.170,135.180 396.492,135.594 L396.492,137.544 C396.492,137.810 396.666,137.987 396.927,137.987 L399.045,137.987 C399.306,137.987 399.480,137.810 399.480,137.544 L399.480,135.565 C402.440,135.033 404.993,132.935 404.993,129.596 Z"/>
<path fill-rule="evenodd"  fill="rgb(219, 222, 229)"
 d="M122.998,128.520 C122.998,132.106 120.726,134.007 115.935,134.007 L115.000,134.007 L115.000,136.500 C115.000,137.328 114.328,138.000 113.500,138.000 C112.672,138.000 112.000,137.328 112.000,136.500 L112.000,134.007 L109.419,134.007 C109.412,134.007 109.408,134.000 109.400,134.000 L107.500,134.000 C106.672,134.000 106.000,133.328 106.000,132.500 C106.000,131.672 106.672,131.000 107.500,131.000 L109.009,131.000 L109.009,118.000 L107.500,118.000 C106.672,118.000 106.000,117.328 106.000,116.500 C106.000,115.672 106.672,115.000 107.500,115.000 L109.399,115.000 C109.407,115.000 109.411,114.992 109.419,114.992 L112.000,114.992 L112.000,112.500 C112.000,111.672 112.672,111.000 113.500,111.000 C114.328,111.000 115.000,111.672 115.000,112.500 L115.000,114.992 L115.935,114.992 C119.740,114.992 121.629,117.220 121.629,119.800 C121.629,121.783 120.589,123.277 119.193,123.821 C121.218,124.337 122.998,126.048 122.998,128.520 ZM115.647,117.998 L112.009,117.998 L112.009,121.990 L115.647,121.990 C117.081,121.990 118.004,121.320 118.004,119.878 C118.004,118.513 117.056,117.998 115.647,117.998 ZM116.548,125.997 L112.010,125.997 L112.010,131.002 L116.548,131.002 C118.700,131.002 119.997,130.211 119.997,128.473 C119.997,126.813 118.700,125.997 116.548,125.997 Z"/>
<path fill-rule="evenodd"  fill="rgb(238, 243, 245)"
 d="M296.105,170.331 C307.311,159.807 323.448,140.459 315.158,108.988 C318.897,116.503 321.000,124.977 321.000,133.942 C321.000,164.902 295.922,190.000 264.986,190.000 C255.603,190.000 246.759,187.691 238.990,183.611 C255.209,192.130 284.899,180.853 296.105,170.331 Z"/>
<path fill-rule="evenodd"  stroke="rgb(33, 34, 37)" stroke-width="2px" stroke-linecap="butt" stroke-linejoin="miter" fill="none"
 d="M256.000,63.000 C290.242,63.000 318.000,90.758 318.000,125.000 C318.000,159.242 290.242,187.000 256.000,187.000 C221.758,187.000 194.000,159.242 194.000,125.000 C194.000,90.758 221.758,63.000 256.000,63.000 Z"/>
<path fill-rule="evenodd"  stroke="rgb(33, 34, 37)" stroke-width="2px" stroke-linecap="butt" stroke-linejoin="miter" fill="none"
 d="M221.220,160.114 C212.430,151.194 206.999,138.911 206.999,125.351 C206.999,98.095 228.939,75.999 256.003,75.999 C283.068,75.999 305.007,98.095 305.007,125.351 C305.007,139.364 299.208,152.013 289.895,160.997 "/>
<path fill-rule="evenodd"  fill="rgb(201, 41, 44)"
 d="M264.519,141.993 L262.035,134.010 L258.562,134.010 L258.562,142.000 L253.438,142.000 L253.438,134.010 L249.959,134.010 L247.475,141.993 L241.003,141.993 L252.556,106.984 L259.454,106.984 L270.991,141.993 L264.519,141.993 ZM256.136,114.985 L255.874,114.985 L251.756,128.232 L260.254,128.232 L256.136,114.985 Z"/>
<path fill-rule="evenodd"  fill="rgb(228, 231, 236)"
 d="M497.000,182.000 L497.000,220.000 L507.000,220.000 L507.000,222.000 L497.000,222.000 L497.000,231.000 L495.000,231.000 L495.000,222.000 L457.000,222.000 L457.000,231.000 L455.000,231.000 L455.000,222.000 L417.000,222.000 L417.000,232.000 L415.000,232.000 L415.000,222.000 L407.000,222.000 L407.000,220.000 L415.000,220.000 L415.000,212.000 L417.000,212.000 L417.000,220.000 L455.000,220.000 L455.000,201.000 L457.000,201.000 L457.000,220.000 L495.000,220.000 L495.000,182.000 L482.000,182.000 L482.000,180.000 L495.000,180.000 L495.000,151.000 L497.000,151.000 L497.000,180.000 L512.000,180.000 L512.000,182.000 L497.000,182.000 ZM469.000,186.000 L467.000,186.000 L467.000,182.000 L463.000,182.000 L463.000,180.000 L467.000,180.000 L467.000,176.000 L469.000,176.000 L469.000,180.000 L473.000,180.000 L473.000,182.000 L469.000,182.000 L469.000,186.000 ZM414.000,50.000 L414.000,46.000 L410.000,46.000 L410.000,44.000 L414.000,44.000 L414.000,40.000 L416.000,40.000 L416.000,44.000 L420.000,44.000 L420.000,46.000 L416.000,46.000 L416.000,50.000 L414.000,50.000 ZM457.000,40.000 L455.000,40.000 L455.000,22.000 L417.000,22.000 L417.000,30.000 L415.000,30.000 L415.000,22.000 L377.000,22.000 L377.000,30.000 L375.000,30.000 L375.000,22.000 L372.000,22.000 L372.000,20.000 L375.000,20.000 L375.000,10.000 L377.000,10.000 L377.000,20.000 L415.000,20.000 L415.000,-0.000 L417.000,-0.000 L417.000,20.000 L455.000,20.000 L455.000,10.000 L457.000,10.000 L457.000,20.000 L466.000,20.000 L466.000,22.000 L457.000,22.000 L457.000,40.000 ZM337.000,242.000 L335.000,242.000 L335.000,222.000 L314.000,222.000 L314.000,220.000 L335.000,220.000 L335.000,212.000 L337.000,212.000 L337.000,220.000 L344.000,220.000 L344.000,222.000 L337.000,222.000 L337.000,242.000 ZM214.000,26.000 L212.000,26.000 L212.000,22.000 L208.000,22.000 L208.000,20.000 L212.000,20.000 L212.000,16.000 L214.000,16.000 L214.000,20.000 L218.000,20.000 L218.000,22.000 L214.000,22.000 L214.000,26.000 ZM177.000,30.000 L175.000,30.000 L175.000,22.000 L168.000,22.000 L168.000,20.000 L175.000,20.000 L175.000,-0.000 L177.000,-0.000 L177.000,20.000 L198.000,20.000 L198.000,22.000 L177.000,22.000 L177.000,30.000 ZM156.000,226.000 L154.000,226.000 L154.000,222.000 L150.000,222.000 L150.000,220.000 L154.000,220.000 L154.000,216.000 L156.000,216.000 L156.000,220.000 L160.000,220.000 L160.000,222.000 L156.000,222.000 L156.000,226.000 ZM137.000,232.000 L135.000,232.000 L135.000,222.000 L97.000,222.000 L97.000,242.000 L95.000,242.000 L95.000,222.000 L57.000,222.000 L57.000,232.000 L55.000,232.000 L55.000,222.000 L46.000,222.000 L46.000,220.000 L55.000,220.000 L55.000,202.000 L57.000,202.000 L57.000,220.000 L95.000,220.000 L95.000,212.000 L97.000,212.000 L97.000,220.000 L135.000,220.000 L135.000,212.000 L137.000,212.000 L137.000,220.000 L140.000,220.000 L140.000,222.000 L137.000,222.000 L137.000,232.000 ZM55.000,61.000 L55.000,57.000 L51.000,57.000 L51.000,55.000 L55.000,55.000 L55.000,51.000 L57.000,51.000 L57.000,55.000 L61.000,55.000 L61.000,57.000 L57.000,57.000 L57.000,61.000 L55.000,61.000 ZM97.000,30.000 L95.000,30.000 L95.000,22.000 L57.000,22.000 L57.000,41.000 L55.000,41.000 L55.000,22.000 L17.000,22.000 L17.000,60.000 L30.000,60.000 L30.000,62.000 L17.000,62.000 L17.000,91.000 L15.000,91.000 L15.000,62.000 L0.000,62.000 L0.000,60.000 L15.000,60.000 L15.000,22.000 L5.000,22.000 L5.000,20.000 L15.000,20.000 L15.000,11.000 L17.000,11.000 L17.000,20.000 L55.000,20.000 L55.000,11.000 L57.000,11.000 L57.000,20.000 L95.000,20.000 L95.000,10.000 L97.000,10.000 L97.000,20.000 L105.000,20.000 L105.000,22.000 L97.000,22.000 L97.000,30.000 Z"/>
</svg>
